X: 1
T: Dva\vsti, tri\vsti
O: Bulgaria
S: Presented by Yves Moreau, Pinewoods 2003
M: none
L: 1/16
%%slurgraces 1
%%vocalfont Helvetica-Narrow-bold 20
%%wordsfont Times-Roman 12
K: D
Q: "2.3.2.3, 2.2.2.3"
[| "A"A2 ~B2A "D"dc ~B2A | "A"AB AG FG "D"~A2D | "Bm"FG ~A2B "Gm"G2 ~F2E | "A"EF ED "D"D2 FGA |
|  "A"A2 ~B2A "D"dc ~B2A | "A"AB AG FG "D"~A2D | "Bm"FG ~A2B "Gm"G2 ~F2E | "A"EF ED "D"D2 D3  |]
|: "G"FG GF "D"FG A3 | "A"AG GF GF E2{FE}D |
w: 1.~Dva-*\vsti* tri-*\vsti, prez* go-ra mi-*nah
w:    Da* li* be-*\vse son* za-*spa-*la
